apps/app.mento.org/public/tokens/EURm.svg

<svg width="220" height="220" viewBox="0 0 220 220" fill="none" xmlns="http://www.w3.org/2000/svg">
<path d="M110 220C170.751 220 220 170.751 220 110C220 49.2487 170.751 0 110 0C49.2487 0 0 49.2487 0 110C0 170.751 49.2487 220 110 220Z" fill="#510DC1"/>
<path d="M110 23C158.049 23 197 61.9512 197 110C197 158.049 158.049 197 110 197C61.9512 197 23 158.049 23 110C23 61.9512 61.9512 23 110 23Z" stroke="url(#paint0_linear_2057_361)" stroke-width="36"/>
<path d="M110 202C160.81 202 202 160.81 202 110C202 59.1898 160.81 18 110 18C59.1898 18 18 59.1898 18 110C18 160.81 59.1898 202 110 202Z" fill="#510DC1"/>
<path d="M112.07 165C86.5362 165 71.9803 147.697 67.6992 124.72H55V113.383H66.5548C66.4107 112.044 66.4106 110.847 66.4106 109.5C66.4106 107.266 66.5548 105.174 66.6989 103.082H55V91.7446H68.2672C73.1163 69.9648 87.3839 54 112.062 54C136.74 54 151.151 70.8601 154.576 91.4433H135.315C132.747 80.6996 125.897 71.8972 112.062 71.8972C98.2266 71.8972 91.6565 80.1057 88.5199 91.7357H114.91V103.073H86.6633C86.5191 105.165 86.3751 107.248 86.3751 109.491C86.3751 110.83 86.3751 112.026 86.5192 113.374H114.91V124.711H87.8078C90.6647 137.689 97.9383 147.085 112.062 147.085C126.897 147.085 133.603 136.793 135.883 124.711H155C152.287 146.793 138.343 165 111.944 165H112.07Z" fill="url(#paint1_linear_2057_361)"/>
<defs>
<linearGradient id="paint0_linear_2057_361" x1="23.9" y1="45.6" x2="233.2" y2="222.35" gradientUnits="userSpaceOnUse">
<stop offset="0.45" stop-color="#75AEFF"/>
<stop offset="0.6" stop-color="#FFFF73"/>
</linearGradient>
<linearGradient id="paint1_linear_2057_361" x1="105" y1="54" x2="105" y2="165" gradientUnits="userSpaceOnUse">
<stop stop-color="#E2DBFF"/>
<stop offset="0.975962" stop-color="#FBFAFF"/>
</linearGradient>
</defs>
</svg>

<svg xmlns="http://www.w3.org/2000/svg" width="220" height="220" fill="none" viewBox="0 0 220 220"><path fill="#510dc1" d="M110 220c60.751 0 110-49.249 110-110S170.751 0 110 0 0 49.249 0 110s49.249 110 110 110"/><path stroke="url(#a)" stroke-width="36" d="M110 23c48.049 0 87 38.951 87 87s-38.951 87-87 87-87-38.951-87-87 38.951-87 87-87Z"/><path fill="#510dc1" d="M110 202c50.81 0 92-41.19 92-92s-41.19-92-92-92-92 41.19-92 92 41.19 92 92 92"/><path fill="url(#b)" d="M112.07 165c-25.534 0-40.09-17.303-44.37-40.28H55v-11.337h11.555c-.144-1.339-.144-2.536-.144-3.883 0-2.234.144-4.326.288-6.418H55V91.745h13.267C73.117 69.965 87.384 54 112.062 54s39.089 16.86 42.514 37.443h-19.261c-2.568-10.743-9.418-19.546-23.253-19.546S91.656 80.106 88.52 91.736h26.39v11.337H86.663c-.144 2.092-.288 4.175-.288 6.418 0 1.339 0 2.535.144 3.883h28.391v11.337H87.808c2.857 12.978 10.13 22.374 24.254 22.374 14.835 0 21.541-10.292 23.821-22.374H155C152.287 146.793 138.343 165 111.944 165z"/><defs><linearGradient id="a" x1="23.9" x2="233.2" y1="45.6" y2="222.35" gradientUnits="userSpaceOnUse"><stop offset=".45" stop-color="#75aeff"/><stop offset=".6" stop-color="#ffff73"/></linearGradient><linearGradient id="b" x1="105" x2="105" y1="54" y2="165" gradientUnits="userSpaceOnUse"><stop stop-color="#e2dbff"/><stop offset=".976" stop-color="#fbfaff"/></linearGradient></defs></svg>
